!!!SOCIAL_FUNCTION:	bird dance songs
!!!PDT:	1956
!!!OTL: No_130_Catfish_Dance_Song_(d).krn
!!!LANG: Non-Tone
!!!LING_GROUP: Muskogean
!!!REG: Florida
**kern
*staff1
=1-
=
*clefF4
*k[]
*M2/4
8.c\L
16c\Jk
4c\
=2
8c\L
8c\J
8c\L
8G\J
=3
8G\L
16.G\L
32G\JJk
16.G\LL
32F\K
16E\JJ
16r
=4
8E\L
8A\J
8G\L
8E\J
=5
8G\L
16.E\L
32E\JJk
8E\
8r
=6
8C/L
16C/L
16C/JJ
4C/
=7
16E\LL
16C\J
8F\J
8F\
8r
=8
8F\L
8A\J
8G\L
8E\J
=9
8G\L
16.E\L
32E\JJk
8E\
8r
=10
8C/L
8C/J
4C/
==:|!
*-
